actions/22x22-dark/im-google-talk.svg

<svg viewBox="0 0 22 22" xmlns="http://www.w3.org/2000/svg"><path d="m11 3c-3.6682927 0-6.6347656 2.9664729-6.6347656 6.6347656 0 3.6682924 2.9664729 6.6328124 6.6347656 6.6328124h.390625v2.732422c3.82439-1.795122 6.244141-5.853039 6.244141-9.3652344 0-3.6682927-2.966473-6.6347656-6.634766-6.6347656zm-2.7324219 4.6835938h2.3417969v2.3398442l-.7792969 1.5625h-1.171875l.78125-1.5625h-1.171875zm3.1230469 0h2.341797v2.3398442l-.78125 1.5625h-1.169922l.779297-1.5625h-1.169922z" fill="#f2f2f2"/></svg>

<svg xmlns="http://www.w3.org/2000/svg" viewBox="0 0 22 22">
  <defs id="defs3051">
    <style type="text/css" id="current-color-scheme">
      .ColorScheme-Text {
        color:#f2f2f2
      }
      </style>
  </defs>
 <path 
     style="fill:currentColor;fill-opacity:1;stroke:none"      
	 class="ColorScheme-Text"
        d="M 11 3 C 7.3317073 3 4.3652344 5.9664729 4.3652344 9.6347656 C 4.3652344 13.303058 7.3317073 16.267578 11 16.267578 L 11.390625 16.267578 L 11.390625 19 C 15.215015 17.204878 17.634766 13.146961 17.634766 9.6347656 C 17.634766 5.9664729 14.668293 3 11 3 z M 8.2675781 7.6835938 L 10.609375 7.6835938 L 10.609375 10.023438 L 9.8300781 11.585938 L 8.6582031 11.585938 L 9.4394531 10.023438 L 8.2675781 10.023438 L 8.2675781 7.6835938 z M 11.390625 7.6835938 L 13.732422 7.6835938 L 13.732422 10.023438 L 12.951172 11.585938 L 11.78125 11.585938 L 12.560547 10.023438 L 11.390625 10.023438 L 11.390625 7.6835938 z "
     />
</svg>
